X:183
%%etbk:tnset id:58,pos:2,rep:3x,ant:
%%etbk:tnset id:183,pos:3,rep:2x,ant:
%%etbk:wsite http://www.thesession.org/tunes/display/399
%%etbk:color #ffccbf
%%etbk:pldat 2016-06-23T18:53,2016-06-22T15:48,2016-06-21T15:42,2016-06-18T16:29,2016-06-16T18:57,2016-05-05T15:16,2016-05-04T15:26,2016-05-02T19:11,2016-03-11T15:52,2016-03-09T15:31,2016-03-07T18:59,2016-03-05T15:50,2016-02-27T14:53,2016-02-23T17:20,2016-02-16T17:37,2016-02-10T16:26,2015-11-04T16:36,2015-11-03T15:32,2015-10-29T18:47,2015-10-28T16:33,2015-10-27T16:42,2015-10-26T18:53,2015-10-25T14:45,2015-10-24T14:15,2015-10-22T18:41,2015-10-20T17:37,2015-10-19T18:52,2015-10-06T16:23,2015-06-23T18:26,2015-06-18T18:48,2015-06-10T16:30,2015-03-13T18:34,2015-03-10T16:35,2015-03-05T18:13,2015-02-18T17:52,2015-02-11T17:16,2015-02-03T16:34,2014-11-05T18:12,2014-11-02T13:32,2014-10-29T15:49,2014-10-27T19:10,2014-10-24T18:40,2014-08-21T18:06,2014-08-18T18:29,2014-06-23T18:27,2014-06-07T16:45,2014-06-03T15:40,2014-03-06T18:46,2014-03-04T18:28,2014-03-01T16:02,2014-02-26T17:10,2014-02-18T16:32,2013-10-30T16:27,2013-10-28T18:45,2013-10-26T16:41,2013-10-18T16:32,2013-10-15T18:47,2013-10-10T19:46,2013-10-07T18:03
T: Sligo Maid, The
Z: Piano Box Version by Martin Fleischmann
H: Created 2013-02-19 /  Last Modified 2015-10-20
M: 4/4
L: 1/8
R: reel
K: Ador
|: "am"!1!A2BA !2!B!3!d!4!ed | !5!g!4!e!3!d!2!B !1!A!2!G!1!E!2!F | "G"!2!G2!4!BG !1!DGB!2!G | !1!G3A !3!BG!5!d!3!B |
"am"!1!A2BA !2!B!3!d!4!ed | !5!g!4!e!3!d!2!B !1!A!2!G!1!E!2!G | "G"!4!B3G !3!AB!2!G!1!E | !2!DE!2!GA "am"!4!B!3!A!1!A2:|
|: "am"!2!e2!4!ag !4!aaga | !5!bg!4!a!2!f !4!gfed | "G"!2!e!4!ggf !4!g!3!g!4!ge | !1!de!3!ga !5!bga!3!g |
"am"!2!e2!4!ag !4!aaga | !5!bg!4!a!2!f !4!gfed | "G"!2!e2!4!gg !2!e!1!d!2!Bc | !4!d!2!B!5!g!2!B "am"{d}B!1!AA2 :|


